X: 43170
T: Winter Wie Ist Nu Dein Kraft
R: barndance
M: 4/4
K: Dmajor
|:GEGG AA B2|BeeB BA G2|BBBA GE D2|EFGA GF E2:|
BBeB BBcd|cBBA AA B2|BeeB BBcd|cBBA AA B2|
GEGG AA B2|BeeB BA G2|BBBA GE D2|EFGA GF E2||

